icons/source/generic/support.svg

<?xml version="1.0" encoding="utf-8"?>
<!-- Generated by IcoMoon.io -->
<!DOCTYPE svg PUBLIC "-//W3C//DTD SVG 1.1//EN" "http://www.w3.org/Graphics/SVG/1.1/DTD/svg11.dtd">
<svg version="1.1" xmlns="http://www.w3.org/2000/svg" xmlns:xlink="http://www.w3.org/1999/xlink" width="32" height="32" viewBox="0 0 32 32">
<path d="M15.793 0.634c-8.56 0.114-15.406 7.145-15.292 15.705 0.115 8.561 7.146 15.406 15.706 15.291 8.56-0.113 15.405-7.146 15.292-15.705-0.115-8.561-7.147-15.406-15.706-15.291zM15.819 2.655c2.309-0.031 4.489 0.521 6.402 1.519l-2.086 3.477c-1.248-0.61-2.652-0.954-4.135-0.954s-2.887 0.343-4.136 0.954l-2.085-3.475c1.81-0.943 3.86-1.492 6.040-1.521zM7.519 20.268l-3.474 2.085c-0.943-1.81-1.492-3.86-1.521-6.041-0.031-2.308 0.522-4.488 1.519-6.401l3.477 2.086c-0.611 1.248-0.955 2.652-0.955 4.135s0.344 2.887 0.954 4.136zM16.181 29.609c-2.309 0.031-4.49-0.521-6.402-1.519l2.086-3.477c1.249 0.609 2.652 0.953 4.136 0.953 1.483 0 2.887-0.343 4.135-0.953l2.085 3.475c-1.811 0.943-3.861 1.491-6.040 1.521zM16 23.545c-4.094 0-7.413-3.318-7.413-7.413s3.319-7.413 7.413-7.413 7.413 3.319 7.413 7.413c0 4.095-3.319 7.413-7.413 7.413zM24.48 20.268c0.61-1.249 0.954-2.651 0.954-4.136 0-1.483-0.344-2.887-0.954-4.135l3.476-2.085c0.943 1.81 1.492 3.86 1.521 6.040 0.031 2.309-0.521 4.489-1.519 6.402l-3.478-2.086z"></path>
</svg>

<svg xmlns="http://www.w3.org/2000/svg" width="32" height="32" viewBox="0 0 32 32"><path d="M15.793.634C7.233.748.387 7.779.501 16.339.616 24.9 7.647 31.745 16.207 31.63c8.56-.113 15.405-7.146 15.292-15.705C31.384 7.364 24.352.519 15.793.634zm.026 2.021a13.409 13.409 0 0 1 6.402 1.519l-2.086 3.477c-1.248-.61-2.652-.954-4.135-.954s-2.887.343-4.136.954L9.779 4.176a13.42 13.42 0 0 1 6.04-1.521zm-8.3 17.613l-3.474 2.085a13.421 13.421 0 0 1-1.521-6.041 13.42 13.42 0 0 1 1.519-6.401l3.477 2.086c-.611 1.248-.955 2.652-.955 4.135s.344 2.887.954 4.136zm8.662 9.341a13.406 13.406 0 0 1-6.402-1.519l2.086-3.477a9.411 9.411 0 0 0 4.136.953 9.393 9.393 0 0 0 4.135-.953l2.085 3.475a13.44 13.44 0 0 1-6.04 1.521zM16 23.545c-4.094 0-7.413-3.318-7.413-7.413S11.906 8.719 16 8.719a7.413 7.413 0 0 1 0 14.826zm8.48-3.277a9.395 9.395 0 0 0 .954-4.136 9.394 9.394 0 0 0-.954-4.135l3.476-2.085a13.42 13.42 0 0 1 1.521 6.04 13.409 13.409 0 0 1-1.519 6.402l-3.478-2.086z"/></svg>
